polaris-icons/icons/new-icons/FolderMinusMajor.svg

<svg width="20" height="20" viewBox="0 0 20 20" fill="none" xmlns="http://www.w3.org/2000/svg">
<path d="M4.5 6.75C4.5 6.05964 5.05964 5.5 5.75 5.5H7.26393C7.7374 5.5 8.17023 5.7675 8.38197 6.19098L8.55279 6.53262C8.84922 7.1255 9.45518 7.5 10.118 7.5H14.25C14.9404 7.5 15.5 8.05964 15.5 8.75V9.25C15.5 9.66421 15.8358 10 16.25 10C16.6642 10 17 9.66421 17 9.25V8.75C17 7.23122 15.7688 6 14.25 6H10.118C10.0233 6 9.93678 5.9465 9.89443 5.8618L9.72361 5.52016C9.25778 4.58851 8.30556 4 7.26393 4H5.75C4.23122 4 3 5.23122 3 6.75V13.25C3 14.7688 4.23122 16 5.75 16H12.75C13.1642 16 13.5 15.6642 13.5 15.25C13.5 14.8358 13.1642 14.5 12.75 14.5H5.75C5.05964 14.5 4.5 13.9404 4.5 13.25V6.75Z" fill="#4A4A4A"/>
<path d="M12.75 11.5C12.3358 11.5 12 11.8358 12 12.25C12 12.6642 12.3358 13 12.75 13H17.25C17.6642 13 18 12.6642 18 12.25C18 11.8358 17.6642 11.5 17.25 11.5H12.75Z" fill="#4A4A4A"/>
</svg>

<svg viewBox="0 0 20 20" xmlns="http://www.w3.org/2000/svg"><path d="M4.5 6.75c0-.69.56-1.25 1.25-1.25h1.514c.473 0 .906.268 1.118.691l.17.342a1.75 1.75 0 0 0 1.566.967h4.132c.69 0 1.25.56 1.25 1.25v.5a.75.75 0 0 0 1.5 0v-.5a2.75 2.75 0 0 0-2.75-2.75h-4.132a.25.25 0 0 1-.224-.138l-.17-.342a2.75 2.75 0 0 0-2.46-1.52h-1.514a2.75 2.75 0 0 0-2.75 2.75v6.5a2.75 2.75 0 0 0 2.75 2.75h7a.75.75 0 0 0 0-1.5h-7c-.69 0-1.25-.56-1.25-1.25v-6.5Z" fill="#5C5F62"/><path d="M12.75 11.5a.75.75 0 0 0 0 1.5h4.5a.75.75 0 0 0 0-1.5h-4.5Z" fill="#5C5F62"/></svg>
